src/assets/icons/facebook.svg

<svg width="24" height="25" viewBox="0 0 24 25" fill="none" xmlns="http://www.w3.org/2000/svg">
<path d="M22 12.9279C22 7.37119 17.5233 2.86719 12 2.86719C6.47667 2.86719 2 7.37119 2 12.9279C2 17.9505 5.656 22.1125 10.4373 22.8672V15.8365H7.89867V12.9272H10.4373V10.7112C10.4373 8.18985 11.93 6.79652 14.2147 6.79652C15.308 6.79652 16.4533 6.99319 16.4533 6.99319V9.46919H15.1913C13.9493 9.46919 13.5627 10.2452 13.5627 11.0412V12.9279H16.336L15.8927 15.8359H13.5627V22.8672C18.344 22.1125 22 17.9505 22 12.9279Z" fill="black"/>
</svg>

<svg xmlns="http://www.w3.org/2000/svg" width="24" height="25" fill="none"><path fill="#000" d="M22 12.928c0-5.557-4.477-10.06-10-10.06S2 7.37 2 12.927c0 5.023 3.656 9.185 8.437 9.94v-7.031H7.9v-2.91h2.538v-2.216c0-2.521 1.493-3.914 3.778-3.914 1.093 0 2.238.196 2.238.196V9.47h-1.262c-1.242 0-1.628.776-1.628 1.572v1.887h2.773l-.443 2.908h-2.33v7.031c4.781-.755 8.437-4.916 8.437-9.94"/></svg>
